Sensual-Plasma/Sensual-Dark/icons/wallet.svg

<?xml version="1.0" encoding="UTF-8" standalone="no"?>
<svg
   xmlns:dc="http://purl.org/dc/elements/1.1/"
   xmlns:cc="http://creativecommons.org/ns#"
   xmlns:rdf="http://www.w3.org/1999/02/22-rdf-syntax-ns#"
   xmlns:svg="http://www.w3.org/2000/svg"
   xmlns="http://www.w3.org/2000/svg"
   xmlns:sodipodi="http://sodipodi.sourceforge.net/DTD/sodipodi-0.dtd"
   xmlns:inkscape="http://www.inkscape.org/namespaces/inkscape"
   viewBox="0 0 22 22"
   id="svg"
   version="1.1"
   width="100%"
   height="100%"
   sodipodi:docname="wallet.svg"
   inkscape:version="0.92.4 (5da689c313, 2019-01-14)">
  <sodipodi:namedview
     pagecolor="#ffffff"
     bordercolor="#666666"
     borderopacity="1"
     objecttolerance="10"
     gridtolerance="10"
     guidetolerance="10"
     inkscape:pageopacity="0"
     inkscape:pageshadow="2"
     inkscape:window-width="1280"
     inkscape:window-height="977"
     id="namedview12"
     showgrid="false"
     inkscape:zoom="5.3636364"
     inkscape:cx="20.079513"
     inkscape:cy="17.53718"
     inkscape:window-x="0"
     inkscape:window-y="0"
     inkscape:window-maximized="1"
     inkscape:current-layer="svg" />
  <defs
     id="defs81">
    <style
       id="current-color-scheme"
       type="text/css">
</style>
  </defs>
  <metadata
     id="metadata34">
    <rdf:RDF>
      <cc:Work
         rdf:about="">
        <dc:format>image/svg+xml</dc:format>
        <dc:type
           rdf:resource="http://purl.org/dc/dcmitype/StillImage" />
        <dc:title />
      </cc:Work>
    </rdf:RDF>
  </metadata>
  <g
     id="wallet-closed"
     transform="translate(27,-1)">
    <rect
       style="fill:#ffffff;fill-opacity:0;stroke:none"
       id="rect3009"
       width="22"
       height="22"
       x="1"
       y="1" />
    <path
       style="fill:#a1b4ba;fill-opacity:1;stroke:none"
       d="m 43,7 0,13 18,0 0,-13 -3,0 -1,0 -11,0 z m 1,1 6,0 10,0.03125 0,3.96875 -8,-0.03125 0,4 8,0.03125 0,3 -16,0 z m 1,1 0,2 14,0 0,-2 z m 9,3.96875 c 0.55228,0 1,0.4477 1,1 0,0.5523 -0.44772,1 -1,1 -0.55228,0 -1,-0.4477 -1,-1 0,-0.5523 0.44772,-1 1,-1 z"
       transform="translate(-40,0)"
       id="rect7143-9"
       class="ColorScheme-Text" />
  </g>
  <g
     id="wallet-open"
     transform="translate(-1,-1)">
    <rect
       y="1"
       x="1"
       height="22"
       width="22"
       id="rect3014"
       style="fill:#ffffff;fill-opacity:0;stroke:none" />
    <path
       style="fill:#a1b4ba;fill-opacity:1;stroke:none"
       d="M 6,4 6,7 3,7 3,20 21,20 21,7 18,7 18,6 16,6 16,4 z m 1,1 8,0 0,1 -7,0 0,4 -1,0 z m 11,3 2,0 0,4 -8,0 0,4 8,0 0,3 -16,0 0,-11 2,0 0,1 -1,0 0,2 1,0 2,0 9,0 1,0 1,0 0,-2 -1,0 z m -4,5 c 0.55228,0 1,0.4477 1,1 0,0.5523 -0.44772,1 -1,1 -0.55228,0 -1,-0.4477 -1,-1 0,-0.5523 0.44772,-1 1,-1 z"
       id="rect7143"
       class="ColorScheme-Text" />
  </g>
</svg>

<?xml version="1.0" encoding="UTF-8" standalone="no"?>
<svg
   xmlns:dc="http://purl.org/dc/elements/1.1/"
   xmlns:cc="http://creativecommons.org/ns#"
   xmlns:rdf="http://www.w3.org/1999/02/22-rdf-syntax-ns#"
   xmlns:svg="http://www.w3.org/2000/svg"
   xmlns="http://www.w3.org/2000/svg"
   xmlns:sodipodi="http://sodipodi.sourceforge.net/DTD/sodipodi-0.dtd"
   xmlns:inkscape="http://www.inkscape.org/namespaces/inkscape"
   viewBox="0 0 22 22"
   id="svg"
   version="1.1"
   width="100%"
   height="100%"
   sodipodi:docname="wallet.svg"
   inkscape:version="1.0.1 (3bc2e813f5, 2020-09-07)">
  <sodipodi:namedview
     pagecolor="#ffffff"
     bordercolor="#666666"
     borderopacity="1"
     objecttolerance="10"
     gridtolerance="10"
     guidetolerance="10"
     inkscape:pageopacity="0"
     inkscape:pageshadow="2"
     inkscape:window-width="1920"
     inkscape:window-height="1012"
     id="namedview12"
     showgrid="false"
     inkscape:zoom="5.3636364"
     inkscape:cx="20.079513"
     inkscape:cy="17.53718"
     inkscape:window-x="0"
     inkscape:window-y="0"
     inkscape:window-maximized="1"
     inkscape:current-layer="svg"
     inkscape:document-rotation="0" />
  <defs
     id="defs81">
    <style
       id="current-color-scheme"
       type="text/css" />
  </defs>
  <metadata
     id="metadata34">
    <rdf:RDF>
      <cc:Work
         rdf:about="">
        <dc:format>image/svg+xml</dc:format>
        <dc:type
           rdf:resource="http://purl.org/dc/dcmitype/StillImage" />
        <dc:title />
      </cc:Work>
    </rdf:RDF>
  </metadata>
  <g
     id="wallet-closed"
     transform="translate(27,-1)">
    <rect
       style="fill:#ffffff;fill-opacity:0;stroke:none"
       id="rect3009"
       width="22"
       height="22"
       x="1"
       y="1" />
    <path
       style="fill:#d3dae3;fill-opacity:1;stroke:none"
       d="M 43,7 V 20 H 61 V 7 H 58 57 46 Z m 1,1 h 6 L 60,8.03125 V 12 l -8,-0.03125 v 4 L 60,16 v 3 H 44 Z m 1,1 v 2 H 59 V 9 Z m 9,3.96875 c 0.55228,0 1,0.4477 1,1 0,0.5523 -0.44772,1 -1,1 -0.55228,0 -1,-0.4477 -1,-1 0,-0.5523 0.44772,-1 1,-1 z"
       transform="translate(-40)"
       id="rect7143-9"
       class="ColorScheme-Text" />
  </g>
  <g
     id="wallet-open"
     transform="translate(-1,-1)">
    <rect
       y="1"
       x="1"
       height="22"
       width="22"
       id="rect3014"
       style="fill:#ffffff;fill-opacity:0;stroke:none" />
    <path
       style="fill:#d3dae3;fill-opacity:1;stroke:none"
       d="M 6,4 V 7 H 3 V 20 H 21 V 7 H 18 V 6 H 16 V 4 Z m 1,1 h 8 V 6 H 8 v 4 H 7 Z m 11,3 h 2 v 4 h -8 v 4 h 8 v 3 H 4 V 8 H 6 V 9 H 5 v 2 h 1 2 9 1 1 V 9 h -1 z m -4,5 c 0.55228,0 1,0.4477 1,1 0,0.5523 -0.44772,1 -1,1 -0.55228,0 -1,-0.4477 -1,-1 0,-0.5523 0.44772,-1 1,-1 z"
       id="rect7143"
       class="ColorScheme-Text" />
  </g>
</svg>
